X: 57
T: Michael Turner's
T: based on W. A. Mozart - from KV 536, No. 2, ‘Sechs Deutsche Tänze’
R: waltz
M: 3/4
L: 1/8
K: Gmaj
|: GA | "G" B2 BG "D" cA |"G"d2 d2 gf|"C"e2 e2 ge|"G"d2 d2 |
   GA | "G" B2 BG "D"cA     | "G"d2 d2 "D"cA     |"G"G2 G2 "D"AB|"G"G4:|
|: AB | "C" c2 cd Bc     | "D" A2 A2 Bc     |"G"d2 de cd|"Em"B2 B2 |
   gf | "C"e2 e2 ge     | "G"d2 d2 GA | "G" B2 Bc "D"AB|"G"G4:|


